X:1093
T:Walkaway
C:Colin Hume, 1980
L:1/8
M:2/2
R:Reel
S:Colin Hume's website,  colinhume.com  - chords can also be printed below the stave.
Q:1/2=112
%%MIDI program 40     Violin
%%MIDI chordprog 105  Banjo
%%MIDI bassprog 35    Fretless Bass
K:A
P:A
|: "A"Ac-cA e2Af- | "F#m"fAe2 c2B2 | "D"A2FA- AFB2 | "Bm"Fc-cF B2G2 |\
"A"Ac-cA e2Af- | "F#m"fAe2 c2B2 | "D"ABAF EFAB | "E7"cecB cecB :|
P:B
|: "A"Ae-eA f2Ae- | "/"eAc2 B2A2 | "G"=Gd-dG e2Gd- | "/"d=GB2 A2G2 |
"A"Ae-eA f2Ae- | "/"eAc2 B2A2 | "E7"EFGA B2d2 | "A"!turn!c2A2 A4 :|

